X: 22
T:Mountain Road
M:C
L:1/8
F:http://gradcenter.marlboro.edu/~mahoney/abc/abc/Reels.abc	 2007-05-24 20:30:19 UT
K:D Major
F2AF BFAF|F2AF EFDE|F2AF BFAF|G2FG EDB,D|
F2AF BFAF|F2AF EFDE|FAA2 BAFB|ABde fddc||
dcdB ADFA|dcde fgfe|dcdB AFDA|GEFD EDB,D|
dcdB ADFA|dcde fgfe|d2fd AFDF|GEFD EDB,D||

